**kern	**silbe	**harmony	**phrase	**leadinstrument	**rhyme	**timestamp	**harte
*ICvox	*	*M4/4	*	*	*	*	*M4/4
*VRlead	*	*	*	*	*	*	*
*Hstimme	*	*	*	*	*	*	*
*F:	*	*a:	*a:	*a:	*	*a:	*a:
*M4/4	*	*	*	*	*	*	*
*clefG2	*	*	*	*	*	*	*
r;	.	1r;	.	r	.	0	N.C.
=1	=1	=1	=1	=1	=1	=1	=1
*>Letter>A	*>Letter>A	*>Letter>A	*>Letter>A	*>Letter>A	*>Letter>A	*>Letter>A	*>Letter>A
*>Label>Intro	*>Label>Intro	*>Label>Intro	*>Label>Intro	*>Label>Intro	*>Label>Intro	*>Label>Intro	*>Label>Intro
1r	.	1Amm	newline	r	.	1.422	A:min7
=2	=2	=2	=2	=2	=2	=2	=2
1r	.	1Amm	.	r	.	3.604	A:min7
=3	=3	=3	=3	=3	=3	=3	=3
1r	.	1Dmm	.	r	.	5.786	D:min7
=4	=4	=4	=4	=4	=4	=4	=4
1r	.	1Dmm	.	r	.	7.968	D:min7
=5	=5	=5	=5	=5	=5	=5	=5
1r	.	1Amm	newline	r	.	10.15	A:min7
=6	=6	=6	=6	=6	=6	=6	=6
1r	.	1Amm	.	r	.	12.308	A:min7
=7	=7	=7	=7	=7	=7	=7	=7
1r	.	1Dmm	.	r	.	14.465	D:min7
=8	=8	=8	=8	=8	=8	=8	=8
1r	.	1Dmm	.	r	.	16.623	D:min7
=9	=9	=9	=9	=9	=9	=9	=9
1r	.	1Amm	newline	r	.	18.781	A:min7
=10	=10	=10	=10	=10	=10	=10	=10
1r	.	1Amm	.	r	.	20.965	A:min7
=11	=11	=11	=11	=11	=11	=11	=11
1r	.	1Dmm	.	r	.	23.15	D:min7
=12	=12	=12	=12	=12	=12	=12	=12
4r	.	1Dmm	.	r	.	25.334	D:min7
2r	.	.	.	.	.	.	.
8G	I've	.	.	.	.	.	.
8A	been	.	.	.	.	.	.
=13	=13	=13	=13	=13	=13	=13	=13
*>Letter>A2	*>Letter>A2	*>Letter>A2	*>Letter>A2	*>Letter>A2	*>Letter>A2	*>Letter>A2	*>Letter>A2
*>Label>Verse	*>Label>Verse	*>Label>Verse	*>Label>Verse	*>Label>Verse	*>Label>Verse	*>Label>Verse	*>Label>Verse
8d	hold-	1Amm	newline	voice	.	27.518	A:min7
16c	-ing	.	.	.	.	.	.
8A	out	.	.	.	.	.	.
16G	so	.	.	.	.	.	.
4.A	long	.	.	.	A	.	.
8G	I've	.	.	.	.	.	.
8A	been	.	.	.	.	.	.
=14	=14	=14	=14	=14	=14	=14	=14
8d	sleep-	1Amm	.	voice	.	29.696	A:min7
16A	-ing	.	.	.	.	.	.
8A	all	.	.	.	.	.	.
16G	a-	.	.	.	.	.	.
4.A	-lone	.	.	.	A	.	.
8G	Lord	.	.	.	.	.	.
8A	I	.	.	.	.	.	.
=15	=15	=15	=15	=15	=15	=15	=15
8c	miss	1Dmm	.	voice	B	31.875	D:min7
4.A	you	.	.	.	C	.	.
2r	.	.	.	.	.	.	.
=16	=16	=16	=16	=16	=16	=16	=16
4r	.	1Dmm	.	voice	.	34.053	D:min7
2r	.	.	.	.	.	.	.
8G	I've	.	.	.	.	.	.
8A	been	.	.	.	.	.	.
=17	=17	=17	=17	=17	=17	=17	=17
8d	hang-	1Amm	newline	voice	.	36.232	A:min7
16c	-in	.	.	.	.	.	.
8A	on	.	.	.	.	.	.
16G	the	.	.	.	.	.	.
4.A	phone	.	.	.	A	.	.
8G	I've	.	.	.	.	.	.
8A	been	.	.	.	.	.	.
=18	=18	=18	=18	=18	=18	=18	=18
8d	sleep-	1Amm	.	voice	.	38.414	A:min7
16A	-ing	.	.	.	.	.	.
8A	all	.	.	.	.	.	.
16G	a-	.	.	.	.	.	.
4.A	-lone	.	.	.	A	.	.
16G	I	.	.	.	.	.	.
8A	want	.	.	.	.	.	.
16A	to	.	.	.	.	.	.
=19	=19	=19	=19	=19	=19	=19	=19
8c	kiss	1Dmm	.	voice	B	40.596	D:min7
4.A	you	.	.	.	C	.	.
2r	.	.	.	.	.	.	.
=20	=20	=20	=20	=20	=20	=20	=20
2r	.	1Dmm	.	voice	.	42.777	D:min7
4r	.	.	.	.	.	.	.
8g	ooh	.	.	.	C	.	.
8a	ooh	.	.	.	C	.	.
=21	=21	=21	=21	=21	=21	=21	=21
*>Letter>A2	*>Letter>A2	*>Letter>A2	*>Letter>A2	*>Letter>A2	*>Letter>A2	*>Letter>A2	*>Letter>A2
*>Label>Chorus	*>Label>Chorus	*>Label>Chorus	*>Label>Chorus	*>Label>Chorus	*>Label>Chorus	*>Label>Chorus	*>Label>Chorus
8ee	ooh	1Amm	newline	voice	C	44.959	A:min7
8dd	ooh	.	.	.	C	.	.
16a	ooh	.	.	.	C	.	.
16g	_	.	.	.	.	.	.
4a	_	.	.	.	.	.	.
8r	.	.	.	.	.	.	.
8g	ooh	.	.	.	C	.	.
8a	ooh	.	.	.	C	.	.
=22	=22	=22	=22	=22	=22	=22	=22
8dd	ooh	1Amm	.	voice	C	47.161	A:min7
8cc	ooh	.	.	.	C	.	.
16a	ooh	.	.	.	C	.	.
16g	_	.	.	.	.	.	.
4a	_	.	.	.	.	.	.
8r	.	.	.	.	.	.	.
8g	ooh	.	.	.	C	.	.
8a	ooh	.	.	.	C	.	.
=23	=23	=23	=23	=23	=23	=23	=23
8cc	ooh	1Dmm	.	voice	C	49.362	D:min7
4.a	ooh	.	.	.	C	.	.
2r	.	.	.	.	.	.	.
=24	=24	=24	=24	=24	=24	=24	=24
2r	.	1Dmm	.	voice	.	51.563	D:min7
4r	.	.	.	.	.	.	.
8g	ooh	.	.	.	c	.	.
8a	ooh	.	.	.	c	.	.
=25	=25	=25	=25	=25	=25	=25	=25
8dd	ooh	1Amm	newline	voice	C	53.764	A:min7
8cc	ooh	.	.	.	C	.	.
16a	ooh	.	.	.	C	.	.
16g	_	.	.	.	.	.	.
4a	_	.	.	.	.	.	.
8r	.	.	.	.	.	.	.
8g	ooh	.	.	.	C	.	.
8a	ooh	.	.	.	C	.	.
=26	=26	=26	=26	=26	=26	=26	=26
8dd	ooh	1Amm	.	voice	C	55.948	A:min7
8cc	ooh	.	.	.	C	.	.
16a	ooh	.	.	.	C	.	.
16g	_	.	.	.	.	.	.
4a	_	.	.	.	.	.	.
8r	.	.	.	.	.	.	.
8g	ooh	.	.	.	C	.	.
8a	ooh	.	.	.	C	.	.
=27	=27	=27	=27	=27	=27	=27	=27
8cc	ooh	1Dmm	.	voice	C	58.133	D:min7
4.a	ooh	.	.	.	C	.	.
2r	.	.	.	.	.	.	.
=28	=28	=28	=28	=28	=28	=28	=28
2r	.	1Dmm	.	voice	.	60.317	D:min7
8r	.	.	.	.	.	.	.
8c	Well	.	.	.	.	.	.
16d	I've	.	.	.	.	.	.
8c	been	.	.	.	.	.	.
[16e	haun-	.	.	.	.	.	.
=29	=29	=29	=29	=29	=29	=29	=29
*>Letter>A2	*>Letter>A2	*>Letter>A2	*>Letter>A2	*>Letter>A2	*>Letter>A2	*>Letter>A2	*>Letter>A2
*>Label>Verse	*>Label>Verse	*>Label>Verse	*>Label>Verse	*>Label>Verse	*>Label>Verse	*>Label>Verse	*>Label>Verse
8.e]	_	1Amm	newline	voice	.	62.501	A:min7
16A	-ted	.	.	.	.	.	.
16A	in	.	.	.	.	.	.
8G	my	.	.	.	.	.	.
[16A	sleep	.	.	.	D	.	.
4A]	_	.	.	.	.	.	.
16G	You've	.	.	.	.	.	.
8A	been	.	.	.	.	.	.
[16d	star-	.	.	.	.	.	.
=30	=30	=30	=30	=30	=30	=30	=30
8d]	_	1Amm	.	voice	.	64.691	A:min7
8A	-rin	.	.	.	.	.	.
16A	in	.	.	.	.	.	.
8G	my	.	.	.	.	.	.
[16A	dreams	.	.	.	D	.	.
4A]	_	.	.	.	.	.	.
16G	Lord	.	.	.	.	.	.
8.A	I	.	.	.	.	.	.
=31	=31	=31	=31	=31	=31	=31	=31
8r	.	1Dmm	.	voice	.	66.881	D:min7
8c	miss	.	.	.	B	.	.
8A	you	.	.	.	C	.	.
4A	child	.	.	.	.	.	.
8r	.	.	.	.	.	.	.
4r	.	.	.	.	.	.	.
=32	=32	=32	=32	=32	=32	=32	=32
4r	.	1Dmm	.	voice	.	69.07	D:min7
2r	.	.	.	.	.	.	.
8G	I've	.	.	.	.	.	.
8A	been	.	.	.	.	.	.
=33	=33	=33	=33	=33	=33	=33	=33
16d	wait-	1Amm	newline	voice	.	71.26	A:min7
16A	-in	.	.	.	.	.	.
8A	in	.	.	.	.	.	.
8G	the	.	.	.	.	.	.
4.A	hall	.	.	.	E	.	.
8r	.	.	.	.	.	.	.
8A	been	.	.	.	.	.	.
=34	=34	=34	=34	=34	=34	=34	=34
16d	wait-	1Amm	.	voice	.	73.44	A:min7
16A	-in	.	.	.	.	.	.
8A	on	.	.	.	.	.	.
8G	your	.	.	.	.	.	.
4.A	call	.	.	.	E	.	.
8G	the	.	.	.	.	.	.
8c	phone	.	.	.	.	.	.
=35	=35	=35	=35	=35	=35	=35	=35
8A	rings	1Dmm	.	voice	.	75.621	D:min7
8r	.	.	.	.	.	.	.
4r	.	.	.	.	.	.	.
8r	.	.	.	.	.	.	.
8~A	it's	.	.	.	.	.	.
8~A	just	.	.	.	.	.	.
16~A	some	.	.	.	.	.	.
[16~c	friends	.	.	.	.	.	.
=36	=36	=36	=36	=36	=36	=36	=36
8~c]	_	1Dmm	.	voice	.	77.801	D:min7
16~F	of	.	.	.	.	.	.
8~F	mine	.	.	.	.	.	.
16~F	that	.	.	.	.	.	.
8~F	say	.	.	.	.	.	.
4r	.	.	.	.	.	.	.
4~a	Hey	.	.	.	.	.	.
=37	=37	=37	=37	=37	=37	=37	=37
8r	.	1Amm	newline	voice	.	79.981	A:min7
16~f	what's	.	.	.	.	.	.
16~e	the	.	.	.	.	.	.
16~e	mat-	.	.	.	.	.	.
16~d	-ter	.	.	.	.	.	.
4~e	man	.	.	.	.	.	.
8r	.	.	.	.	.	.	.
8~f	we're	.	.	.	.	.	.
16~e	gon-	.	.	.	.	.	.
[16~e	-na	.	.	.	.	.	.
=38	=38	=38	=38	=38	=38	=38	=38
16~e]	_	1Amm	.	voice	.	82.165	A:min7
8.~e	come	.	.	.	.	.	.
8.~e	round	.	.	.	.	.	.
16~e	at	.	.	.	.	.	.
8~e	twelve	.	.	.	.	.	.
16~d	with	.	.	.	.	.	.
16~c	some	.	.	.	.	.	.
16~e	Puer-	.	.	.	.	.	.
16~d	-to	.	.	.	.	.	.
16~d	Ri-	.	.	.	.	.	.
16~c	-can	.	.	.	.	.	.
=39	=39	=39	=39	=39	=39	=39	=39
8d	girls	1Dmm	.	voice	.	84.348	D:min7
8d	that're	.	.	.	.	.	.
8d	just	.	.	.	.	.	.
2f	dyin	.	.	.	.	.	.
8d	to	.	.	.	.	.	.
=40	=40	=40	=40	=40	=40	=40	=40
8~f	meet	1Dmm	.	voice	.	86.532	D:min7
8~F	you	.	.	.	C	.	.
2r	.	.	.	.	.	.	.
16f	We're	.	.	.	.	.	.
8f	gon-	.	.	.	.	.	.
16f	-na	.	.	.	.	.	.
=41	=41	=41	=41	=41	=41	=41	=41
8f	bring	1Amm	newline	voice	.	88.716	A:min7
16f	a	.	.	.	.	.	.
8f	case	.	.	.	.	.	.
16f	of	.	.	.	.	.	.
8f	wine	.	.	.	F	.	.
2r	.	.	.	.	.	.	.
=42	=42	=42	=42	=42	=42	=42	=42
8r	.	1Amm	.	voice	.	90.914	A:min7
8~g	Hey	.	.	.	.	.	.
16~f	let's	.	.	.	.	.	.
16~f	go	.	.	.	.	.	.
16~f	and	.	.	.	.	.	.
8~e	mess	.	.	.	.	.	.
16~e	and	.	.	.	.	.	.
16~e	food	.	.	.	.	.	.
16~e	a-	.	.	.	.	.	.
8~e	-round	.	.	.	.	.	.
16~e	you	.	.	.	.	.	.
16~e	know	.	.	.	.	.	.
=43	=43	=43	=43	=43	=43	=43	=43
8~e	like	1Dmm	.	voice	.	93.111	D:min7
8~e	we	.	.	.	.	.	.
8.~ee	used	.	.	.	C	.	.
16r	.	.	.	.	.	.	.
4~e	to	.	.	.	c	.	.
8g	ahh	.	.	.	.	.	.
8a	ahh	.	.	.	.	.	.
=44	=44	=44	=44	=44	=44	=44	=44
8dd	ahh	1Dmm	.	voice	.	95.309	D:min7
8cc	ahh	.	.	.	.	.	.
16a	ahh	.	.	.	.	.	.
16g	_	.	.	.	.	.	.
4a	_	.	.	.	.	.	.
8r	.	.	.	.	.	.	.
8g	ahh	.	.	.	.	.	.
8a	ahh	.	.	.	.	.	.
=45	=45	=45	=45	=45	=45	=45	=45
*>Letter>A2	*>Letter>A2	*>Letter>A2	*>Letter>A2	*>Letter>A2	*>Letter>A2	*>Letter>A2	*>Letter>A2
*>Label>Chorus	*>Label>Chorus	*>Label>Chorus	*>Label>Chorus	*>Label>Chorus	*>Label>Chorus	*>Label>Chorus	*>Label>Chorus
8dd	ahh	1Amm	newline	voice	.	97.507	A:min7
8cc	ahh	.	.	.	.	.	.
16a	ahh	.	.	.	.	.	.
16g	_	.	.	.	.	.	.
4a	_	.	.	.	.	.	.
8r	.	.	.	.	.	.	.
8g	ahh	.	.	.	.	.	.
8a	ahh	.	.	.	.	.	.
=46	=46	=46	=46	=46	=46	=46	=46
8cc	ahh	1Amm	.	voice	.	99.707	A:min7
4a	ahh	.	.	.	.	.	.
8r	.	.	.	.	.	.	.
2r	.	.	.	.	.	.	.
=47	=47	=47	=47	=47	=47	=47	=47
1r	.	1Dmm	.	voice	.	101.908	D:min7
=48	=48	=48	=48	=48	=48	=48	=48
2r	.	1Dmm	.	voice	.	104.108	D:min7
4r	.	.	.	.	.	.	.
8g	ahh	.	.	.	.	.	.
8a	ahh	.	.	.	.	.	.
=49	=49	=49	=49	=49	=49	=49	=49
8dd	ahh	1Amm	newline	voice	.	106.308	A:min7
8cc	ahh	.	.	.	.	.	.
16a	ahh	.	.	.	.	.	.
16g	_	.	.	.	.	.	.
4a	_	.	.	.	.	.	.
8r	.	.	.	.	.	.	.
8g	ahh	.	.	.	.	.	.
8a	ahh	.	.	.	.	.	.
=50	=50	=50	=50	=50	=50	=50	=50
8dd	ahh	1Amm	.	voice	.	108.495	A:min7
8cc	ahh	.	.	.	.	.	.
16a	ahh	.	.	.	.	.	.
16g	_	.	.	.	.	.	.
4a	_	.	.	.	.	.	.
8r	.	.	.	.	.	.	.
8g	ahh	.	.	.	.	.	.
8a	ahh	.	.	.	.	.	.
=51	=51	=51	=51	=51	=51	=51	=51
8cc	ahh	1Dmm	.	voice	.	110.681	D:min7
4a	ahh	.	.	.	.	.	.
8r	.	.	.	.	.	.	.
2r	.	.	.	.	.	.	.
=52	=52	=52	=52	=52	=52	=52	=52
1r	.	1Dmm	.	voice	.	112.867	D:min7
=53	=53	=53	=53	=53	=53	=53	=53
*>Letter>B	*>Letter>B	*>Letter>B	*>Letter>B	*>Letter>B	*>Letter>B	*>Letter>B	*>Letter>B
*>Label>Bridge	*>Label>Bridge	*>Label>Bridge	*>Label>Bridge	*>Label>Bridge	*>Label>Bridge	*>Label>Bridge	*>Label>Bridge
4e	Oh	1FM	newline	voice	.	115.053	F:maj
2f	_	.	.	.	.	.	.
4r	.	.	.	.	.	.	.
=54	=54	=54	=54	=54	=54	=54	=54
8e-	ev-	1Emm	.	voice	.	117.217	E:min7
8e	-ery-	.	.	.	.	.	.
8e	-bo-	.	.	.	.	.	.
8e	-dy	.	.	.	.	.	.
4e	waits	.	.	.	.	.	.
8e	so	.	.	.	.	.	.
[8d	long	.	.	.	E	.	.
=55	=55	=55	=55	=55	=55	=55	=55
16d]	_	1Dmm	.	voice	.	119.381	D:min7
16c	_	.	.	.	.	.	.
2.A	_	.	.	.	.	.	.
8r	.	.	.	.	.	.	.
=56	=56	=56	=56	=56	=56	=56	=56
1r	.	1Dmm	.	voice	.	121.545	D:min7
=57	=57	=57	=57	=57	=57	=57	=57
8e	Oh	1FM	newline	voice	.	123.709	F:maj
[2f	_	.	.	.	.	.	.
8f]	_	.	.	.	.	.	.
8r	.	.	.	.	.	.	.
8g	Ba-	.	.	.	.	.	.
=58	=58	=58	=58	=58	=58	=58	=58
8e	_	1Emm	.	voice	.	125.881	E:min7
8e	-by	.	.	.	.	.	.
8e	why	.	.	.	.	.	.
8e	you	.	.	.	.	.	.
4e	wait	.	.	.	.	.	.
8e	so	.	.	.	.	.	.
[8d	long	.	.	.	E	.	.
=59	=59	=59	=59	=59	=59	=59	=59
16d]	_	1Dmm	.	voice	.	128.054	D:min7
16c	_	.	.	.	.	.	.
2A	_	.	.	.	.	.	.
8r	.	.	.	.	.	.	.
8A	won't	.	.	.	.	.	.
8G	you	.	.	.	.	.	.
=60	=60	=60	=60	=60	=60	=60	=60
8r	.	1EMm	.	voice	.	130.227	E:7
8a-	come	.	.	.	.	.	.
8a-	on	.	.	.	E	.	.
4r	.	.	.	.	.	.	.
8a-	come	.	.	.	.	.	.
8a-	on	.	.	.	E	.	.
8r	.	.	.	.	.	.	.
=61	=61	=61	=61	=61	=61	=61	=61
*>Letter>A3	*>Letter>A3	*>Letter>A3	*>Letter>A3	*>Letter>A3	*>Letter>A3	*>Letter>A3	*>Letter>A3
*>Label>Interlude	*>Label>Interlude	*>Label>Interlude	*>Label>Interlude	*>Label>Interlude	*>Label>Interlude	*>Label>Interlude	*>Label>Interlude
1r	.	1Amm	newline	voice	.	132.399	A:min7
=62	=62	=62	=62	=62	=62	=62	=62
8r	.	1Amm	.	voice	.	134.622	A:min7
2~d	Ah	.	.	.	.	.	.
4.~A	_	.	.	.	.	.	.
=63	=63	=63	=63	=63	=63	=63	=63
1r	.	1Dmm	.	voice	.	136.845	D:min7
=64	=64	=64	=64	=64	=64	=64	=64
4r	.	1Dmm	.	voice	.	139.068	D:min7
2r	.	.	.	.	.	.	.
8d	I've	.	.	.	.	.	.
8c	been	.	.	.	.	.	.
=65	=65	=65	=65	=65	=65	=65	=65
*>Letter>A	*>Letter>A	*>Letter>A	*>Letter>A	*>Letter>A	*>Letter>A	*>Letter>A	*>Letter>A
*>Label>Verse	*>Label>Verse	*>Label>Verse	*>Label>Verse	*>Label>Verse	*>Label>Verse	*>Label>Verse	*>Label>Verse
16e	walk-	1Amm	newline	voice	.	141.292	A:min7
16e	-in	.	.	.	.	.	.
8d	in	.	.	.	.	.	.
16d	Cent-	.	.	.	.	.	.
8c	-ral	.	.	.	.	.	.
8.e	park	.	.	.	G	.	.
4.r	.	.	.	.	.	.	.
=66	=66	=66	=66	=66	=66	=66	=66
16~e	Sing-	1Amm	.	voice	.	143.476	A:min7
8.~d	-in	.	.	.	.	.	.
8~d	af-	.	.	.	.	.	.
16~c	-ter	.	.	.	.	.	.
8~d	dark	.	.	.	G	.	.
8~A	_	.	.	.	.	.	.
16r	.	.	.	.	.	.	.
16~e	peo-	.	.	.	.	.	.
16~e	-ple	.	.	.	.	.	.
8~d	think	.	.	.	.	.	.
=67	=67	=67	=67	=67	=67	=67	=67
8~c	I'm	1Dmm	.	voice	.	145.66	D:min7
4r	.	.	.	.	.	.	.
2d	cra-	.	.	.	.	.	.
[8A	-zy	.	.	.	d	.	.
=68	=68	=68	=68	=68	=68	=68	=68
4.A]	_	1Dmm	.	voice	.	147.844	D:min7
8r	.	.	.	.	.	.	.
2r	.	.	.	.	.	.	.
=69	=69	=69	=69	=69	=69	=69	=69
8d	Stumb-	1Amm	newline	voice	.	150.029	A:min7
8c	-lin	.	.	.	.	.	.
8c	on	.	.	.	.	.	.
8B	my	.	.	.	.	.	.
8c	feet	.	.	.	D	.	.
8r	.	.	.	.	.	.	.
4r	.	.	.	.	.	.	.
=70	=70	=70	=70	=70	=70	=70	=70
8d	shuff-	1Amm	.	voice	.	152.235	A:min7
8c	-ling	.	.	.	.	.	.
8c	through	.	.	.	.	.	.
8B	the	.	.	.	.	.	.
8c	street	.	.	.	D	.	.
8r	.	.	.	.	.	.	.
4r	.	.	.	.	.	.	.
=71	=71	=71	=71	=71	=71	=71	=71
8d	ask-	1Dmm	.	voice	.	154.442	D:min7
8d	-in	.	.	.	.	.	.
8d	peo-	.	.	.	.	.	.
8d	-ple	.	.	.	.	.	.
2r	.	.	.	.	.	.	.
=72	=72	=72	=72	=72	=72	=72	=72
16a	what's	1Dmm	.	voice	.	156.649	D:min7
16g	the	.	.	.	.	.	.
16d	mat-	.	.	.	.	.	.
16d	-ter	.	.	.	.	.	.
8d	with	.	.	.	.	.	.
8d	you	.	.	.	.	.	.
4.f	boy	.	.	.	.	.	.
8r	.	.	.	.	.	.	.
=73	=73	=73	=73	=73	=73	=73	=73
4r	.	1Amm	newline	voice	.	158.856	A:min7
2r	.	.	.	.	.	.	.
8~e	Some-	.	.	.	.	.	.
8~e	-times	.	.	.	.	.	.
=74	=74	=74	=74	=74	=74	=74	=74
12~e	I	1Amm	.	voice	.	161.051	A:min7
12~e	wan-	.	.	.	.	.	.
12~e	-na	.	.	.	.	.	.
4~e	say	.	.	.	.	.	.
8r	.	.	.	.	.	.	.
8~e	to	.	.	.	.	.	.
8r	.	.	.	.	.	.	.
16~A	to	.	.	.	.	.	.
16~A	my-	.	.	.	.	.	.
=75	=75	=75	=75	=75	=75	=75	=75
8~d	-self	1Dmm	.	voice	.	163.247	D:min7
4r	.	.	.	.	.	.	.
2r	.	.	.	.	.	.	.
8~d	some-	.	.	.	.	.	.
=76	=76	=76	=76	=76	=76	=76	=76
16~d	-times	1Dmm	.	voice	.	165.442	D:min7
16~d	I	.	.	.	.	.	.
8~d	say	.	.	.	.	.	.
2r	.	.	.	.	.	.	.
4a	Ooh	.	.	.	C	.	.
=77	=77	=77	=77	=77	=77	=77	=77
*>Letter>A2	*>Letter>A2	*>Letter>A2	*>Letter>A2	*>Letter>A2	*>Letter>A2	*>Letter>A2	*>Letter>A2
*>Label>Chorus	*>Label>Chorus	*>Label>Chorus	*>Label>Chorus	*>Label>Chorus	*>Label>Chorus	*>Label>Chorus	*>Label>Chorus
8dd	ooh	1Amm	newline	voice	C	167.637	A:min7
8cc	ooh	.	.	.	C	.	.
16a	ooh	.	.	.	C	.	.
16g	_	.	.	.	.	.	.
4a	_	.	.	.	.	.	.
8r	.	.	.	.	.	.	.
8g	ooh	.	.	.	C	.	.
8a	ooh	.	.	.	C	.	.
=78	=78	=78	=78	=78	=78	=78	=78
8dd	ooh	1Amm	.	voice	C	169.797	A:min7
8cc	ooh	.	.	.	C	.	.
16a	ooh	.	.	.	C	.	.
16g	_	.	.	.	.	.	.
4a	_	.	.	.	.	.	.
8r	.	.	.	.	.	.	.
8g	ooh	.	.	.	C	.	.
8a	ooh	.	.	.	C	.	.
=79	=79	=79	=79	=79	=79	=79	=79
8cc	ooh	1Dmm	.	voice	C	171.957	D:min7
4.a	ooh	.	.	.	C	.	.
2r	.	.	.	.	.	.	.
=80	=80	=80	=80	=80	=80	=80	=80
2r	.	1Dmm	.	voice	.	174.117	D:min7
4r	.	.	.	.	.	.	.
8g	ooh	.	.	.	C	.	.
8a	ooh	.	.	.	C	.	.
=81	=81	=81	=81	=81	=81	=81	=81
8dd	ooh	1Amm	newline	voice	C	176.277	A:min7
8cc	ooh	.	.	.	C	.	.
16a	ooh	.	.	.	C	.	.
16g	_	.	.	.	.	.	.
4a	_	.	.	.	.	.	.
8r	.	.	.	.	.	.	.
8g	ooh	.	.	.	C	.	.
8a	ooh	.	.	.	C	.	.
=82	=82	=82	=82	=82	=82	=82	=82
8dd	ooh	1Amm	.	voice	C	178.474	A:min7
8cc	ooh	.	.	.	C	.	.
16a	ooh	.	.	.	C	.	.
16g	_	.	.	.	.	.	.
4a	_	.	.	.	.	.	.
8r	.	.	.	.	.	.	.
8g	I	.	.	.	.	.	.
8a	won't	.	.	.	.	.	.
=83	=83	=83	=83	=83	=83	=83	=83
8cc	miss	1Dmm	.	voice	B	180.671	D:min7
4a	you	.	.	.	C	.	.
2a	child	.	.	.	.	.	.
8r	.	.	.	.	.	.	.
=84	=84	=84	=84	=84	=84	=84	=84
1r	.	1Dmm	.	voice	.	182.869	D:min7
=85	=85	=85	=85	=85	=85	=85	=85
*>Letter>A2	*>Letter>A2	*>Letter>A2	*>Letter>A2	*>Letter>A2	*>Letter>A2	*>Letter>A2	*>Letter>A2
*>Label>Solo	*>Label>Solo	*>Label>Solo	*>Label>Solo	*>Label>Solo	*>Label>Solo	*>Label>Solo	*>Label>Solo
1r	.	1Amm	newline	saxophone	.	185.066	A:min7
=86	=86	=86	=86	=86	=86	=86	=86
1r	.	1Amm	.	saxophone	.	187.263	A:min7
=87	=87	=87	=87	=87	=87	=87	=87
1r	.	1Dmm	.	saxophone	.	189.459	D:min7
=88	=88	=88	=88	=88	=88	=88	=88
1r	.	1Dmm	.	saxophone	.	191.655	D:min7
=89	=89	=89	=89	=89	=89	=89	=89
1r	.	1Amm	newline	saxophone	.	193.852	A:min7
=90	=90	=90	=90	=90	=90	=90	=90
1r	.	1Amm	.	saxophone	.	196.05	A:min7
=91	=91	=91	=91	=91	=91	=91	=91
1r	.	1Dmm	.	saxophone	.	198.248	D:min7
=92	=92	=92	=92	=92	=92	=92	=92
2r	.	1Dmm	.	saxophone	.	200.446	D:min7
8r	.	.	.	.	.	.	.
16r	.	.	.	.	.	.	.
16c	I	.	.	.	.	.	.
16e	guess	.	.	.	.	.	.
8d	I'm	.	.	.	.	.	.
[16d	ly-	.	.	.	.	.	.
=93	=93	=93	=93	=93	=93	=93	=93
*>Letter>A	*>Letter>A	*>Letter>A	*>Letter>A	*>Letter>A	*>Letter>A	*>Letter>A	*>Letter>A
*>Label>Verse	*>Label>Verse	*>Label>Verse	*>Label>Verse	*>Label>Verse	*>Label>Verse	*>Label>Verse	*>Label>Verse
8d]	_	1Amm	newline	voice	.	202.645	A:min7
8c	-ing	.	.	.	.	.	.
16d	to	.	.	.	.	.	.
8c	my-	.	.	.	.	.	.
16e	-self	.	.	.	H	.	.
4r	.	.	.	.	.	.	.
16A	it's	.	.	.	.	.	.
8A	just	.	.	.	.	.	.
[16d	you	.	.	.	C	.	.
=94	=94	=94	=94	=94	=94	=94	=94
12d]	_	1Amm	.	voice	.	204.822	A:min7
12c	and	.	.	.	.	.	.
12d	no	.	.	.	.	.	.
12c	one	.	.	.	.	.	.
6d	else	.	.	.	H	.	.
8A	_	.	.	.	.	.	.
8e-	Lord	.	.	.	.	.	.
8d	_	.	.	.	.	.	.
8c	I	.	.	.	.	.	.
=95	=95	=95	=95	=95	=95	=95	=95
8d	won't	1Dmm	.	voice	.	207	D:min7
8d	mis	.	.	.	B	.	.
8d	you	.	.	.	C	.	.
8c	_	.	.	.	.	.	.
16d	child	.	.	.	I	.	.
8A	_	.	.	.	.	.	.
16r	.	.	.	.	.	.	.
4r	.	.	.	.	.	.	.
=96	=96	=96	=96	=96	=96	=96	=96
8r	.	1Dmm	.	voice	.	209.178	D:min7
2r	.	.	.	.	.	.	.
8e-	you've	.	.	.	.	.	.
16d	just	.	.	.	.	.	.
16c	been	.	.	.	.	.	.
8r	.	.	.	.	.	.	.
=97	=97	=97	=97	=97	=97	=97	=97
16e-	blot-	1Amm	newline	voice	.	211.356	A:min7
16e-	-ting	.	.	.	.	.	.
[8e-	out	.	.	.	.	.	.
16e-]	_	.	.	.	.	.	.
8.e-	my	.	.	.	.	.	.
16e-	mind	.	.	.	I	.	.
16d	_	.	.	.	.	.	.
4A	_	.	.	.	.	.	.
8r	.	.	.	.	.	.	.
=98	=98	=98	=98	=98	=98	=98	=98
16e-	Fool-	1Amm	.	voice	.	213.547	A:min7
16e-	-ing	.	.	.	.	.	.
[8e-	on	.	.	.	.	.	.
16e-]	_	.	.	.	.	.	.
8.e-	my	.	.	.	.	.	.
16e-	time	.	.	.	I	.	.
16d	_	.	.	.	.	.	.
16c	_	.	.	.	.	.	.
16d	_	.	.	.	.	.	.
8d	no	.	.	.	.	.	.
8d	I	.	.	.	.	.	.
=99	=99	=99	=99	=99	=99	=99	=99
6d	won't	1Dmm	.	voice	.	215.739	D:min7
6d	miss	.	.	.	.	.	.
6d	you	.	.	.	.	.	.
6d	ba-	.	.	.	.	.	.
6d	-by	.	.	.	.	.	.
6d	yeah	.	.	.	.	.	.
=100	=100	=100	=100	=100	=100	=100	=100
16c	_	1Dmm	.	voice	.	217.93	D:min7
16d	_	.	.	.	.	.	.
16c	_	.	.	.	.	.	.
4A	_	.	.	.	.	.	.
16r	.	.	.	.	.	.	.
8r	.	.	.	.	.	.	.
4r	.	.	.	.	.	.	.
8a	Lord	.	.	.	.	.	.
=101	=101	=101	=101	=101	=101	=101	=101
8d	_	1Amm	newline	voice	.	220.122	A:min7
8e	I	.	.	.	.	.	.
8e	miss	.	.	.	B	.	.
8e	you	.	.	.	C	.	.
16e	child	.	.	.	I	.	.
16d	_	.	.	.	.	.	.
8A	_	.	.	.	.	.	.
4r	.	.	.	.	.	.	.
=102	=102	=102	=102	=102	=102	=102	=102
8r	.	1Amm	.	voice	.	222.282	A:min7
2r	.	.	.	.	.	.	.
8r	.	.	.	.	.	.	.
4r	.	.	.	.	.	.	.
=103	=103	=103	=103	=103	=103	=103	=103
1r	.	1Dmm	.	voice	.	224.442	D:min7
=104	=104	=104	=104	=104	=104	=104	=104
2r	.	1Dmm	.	voice	.	226.602	D:min7
4r	.	.	.	.	.	.	.
8g	ahh	.	.	.	.	.	.
8a	ahh	.	.	.	.	.	.
=105	=105	=105	=105	=105	=105	=105	=105
*>Letter>A	*>Letter>A	*>Letter>A	*>Letter>A	*>Letter>A	*>Letter>A	*>Letter>A	*>Letter>A
*>Label>Chorus	*>Label>Chorus	*>Label>Chorus	*>Label>Chorus	*>Label>Chorus	*>Label>Chorus	*>Label>Chorus	*>Label>Chorus
8dd	ahh	1Amm	newline	voice	.	228.762	A:min7
8cc	ahh	.	.	.	.	.	.
16a	ahh	.	.	.	.	.	.
16g	_	.	.	.	.	.	.
4a	_	.	.	.	.	.	.
8r	.	.	.	.	.	.	.
8g	ahh	.	.	.	.	.	.
8a	ahh	.	.	.	.	.	.
=106	=106	=106	=106	=106	=106	=106	=106
8dd	ahh	1Amm	.	voice	.	230.946	A:min7
8cc	ahh	.	.	.	.	.	.
16a	ahh	.	.	.	.	.	.
16g	_	.	.	.	.	.	.
4a	_	.	.	.	.	.	.
8r	.	.	.	.	.	.	.
8g	ahh	.	.	.	.	.	.
8a	ahh	.	.	.	.	.	.
=107	=107	=107	=107	=107	=107	=107	=107
8cc	ahh	1Dmm	.	voice	.	233.129	D:min7
4a	ahh	.	.	.	.	.	.
2r	.	.	.	.	.	.	.
8r	.	.	.	.	.	.	.
=108	=108	=108	=108	=108	=108	=108	=108
1r	.	1Dmm	.	voice	.	235.312	D:min7
=109	=109	=109	=109	=109	=109	=109	=109
1r	.	1Amm	newline	voice	.	237.495	A:min7
=110	=110	=110	=110	=110	=110	=110	=110
1r	.	1Amm	.	voice	.	239.678	A:min7
=111	=111	=111	=111	=111	=111	=111	=111
1r	.	1Dmm	.	voice	.	241.861	D:min7
=112	=112	=112	=112	=112	=112	=112	=112
1r	.	1Dmm	.	voice	.	244.044	D:min7
=113	=113	=113	=113	=113	=113	=113	=113
1r	.	1Amm	newline	voice	.	246.227	A:min7
=114	=114	=114	=114	=114	=114	=114	=114
1r	.	1Amm	.	voice	.	248.421	A:min7
=115	=115	=115	=115	=115	=115	=115	=115
1r	.	1Dmm	.	voice	.	250.614	D:min7
=116	=116	=116	=116	=116	=116	=116	=116
1r	.	1Dmm	.	voice	.	252.807	D:min7
=117	=117	=117	=117	=117	=117	=117	=117
*>Letter>A2	*>Letter>A2	*>Letter>A2	*>Letter>A2	*>Letter>A2	*>Letter>A2	*>Letter>A2	*>Letter>A2
*>Label>Solo	*>Label>Solo	*>Label>Solo	*>Label>Solo	*>Label>Solo	*>Label>Solo	*>Label>Solo	*>Label>Solo
1r	.	1Amm	newline	keyboard	.	255.001	A:min7
=118	=118	=118	=118	=118	=118	=118	=118
1r	.	1Amm	.	keyboard	.	257.196	A:min7
=119	=119	=119	=119	=119	=119	=119	=119
1r	.	1Dmm	.	keyboard	.	259.39	D:min7
=120	=120	=120	=120	=120	=120	=120	=120
1r	.	1Dmm	.	keyboard	.	261.585	D:min7
=121	=121	=121	=121	=121	=121	=121	=121
1r	.	1Amm	newline	keyboard	.	263.78	A:min7
=122	=122	=122	=122	=122	=122	=122	=122
1r	.	1Amm	.	keyboard	.	265.953	A:min7
=123	=123	=123	=123	=123	=123	=123	=123
1r	.	1Dmm	.	keyboard	.	268.125	D:min7
=124	=124	=124	=124	=124	=124	=124	=124
1r	.	1Dmm	.	keyboard	.	270.298	D:min7
=125	=125	=125	=125	=125	=125	=125	=125
*>Label>>Fadeout	*>Label>>Fadeout	*>Label>>Fadeout	*>Label>>Fadeout	*>Label>>Fadeout	*>Label>>Fadeout	*>Label>>Fadeout	*>Label>>Fadeout
1r	.	1Amm	newline	keyboard	.	272.471	A:min7
=126	=126	=126	=126	=126	=126	=126	=126
1r	.	1Amm	.	keyboard	.	274.65	A:min7
=127	=127	=127	=127	=127	=127	=127	=127
1r	.	1Dmm	.	keyboard	.	276.829	D:min7
=128	=128	=128	=128	=128	=128	=128	=128
1r	.	1Dmm	.	keyboard	.	279.008	D:min7
=129	=129	=129	=129	=129	=129	=129	=129
1r	.	1Amm	newline	keyboard	.	281.187	A:min7
=130	=130	=130	=130	=130	=130	=130	=130
1r	.	1Amm	.	keyboard	.	283.035	A:min7
=131	=131	=131	=131	=131	=131	=131	=131
1r	.	1Dmm	.	keyboard	.	284.883	D:min7
=132	=132	=132	=132	=132	=132	=132	=132
1r	.	1Dmm	.	keyboard	.	286.731	D:min7
r;	.	1r;	.	r	.	288.579	N.C.
*-	*-	*-	*-	*-	*-	*-	*-
!!!BillboardChartDate: 1978/07/29
!!!BillboardPeak: 1
!!!BillboardWeeksOnChart: 20
!!!COC: The Rolling Stones
!!!ENC: Nathaniel Condit-Schultz
!!!EST: Awating manual error checking and editing.
!!!OTL: Miss You
!!!RDF**chordsym: original McGill chord annotation + (implied pitch class set, with bass pitch in first position)
!!!RDF**harmony: **recip + pitch class of root + harmonic quality
!!!RDF**leadinstrument: original McGill primary instrumentation annotation
!!!RDF**phrase: newline = linebreak in original McGill transcription
!!!RDF**timestamp: McGill audio timestamp in seconds
!!!RDT: 2017/01/12/
!!!SampleActualRank: 3
!!!SampleID#: 0958
!!!SampleTargetRank: 3
